X:1
T:Title
%%score { ( 1 3 ) | 2 }
L:1/8
Q:1/4=100
M:12/8
K:F
V:1 treble nm="Grand Piano"
V:3 treble 
V:2 bass 
V:1
 [DF]2 [DF] [^CE]2 [CG] [DF]6 | [DB]2 [DA] [Dc]2 [DB] z3 z C2 | A2 _A =A2 B c3 A3 | %3
w: Henry~Barraclough * * * *|||
 G2 A G2 F [DF]6 | [DF]2 [DF] [^CE]2 [CG] [DF]6 | [DB]2 [DA] [Dc]2 [DB] [_EG]6 | %6
w: |||
 [Gc]2 [G=B] [Gd]2 [Gc] [G_B]3 G3 |[M:13/8] F2 d c3 F[DB]-[DB]-[DB]- [DB]3 |] %8
w: ||
V:2
 [B,,B,]2 [B,,B,] [B,,G,]2 [B,,E,] [B,,F,]6 | %1
 [B,,F,]2 [B,,F,] [B,,F,]2 [B,,B,] [_E,B,]3- [E,B,] C,2 | %2
 [F,C_E]2 [F,=B,E] [F,CF]2 [F,G,D] [F,A,E]3 [F,CE]3 | [F,C_E]2 [F,CE] [F,A,E]2 [F,A,E] [B,,B,]6 | %4
 [B,,B,]2 [B,,B,] [B,,G,]2 [B,,E,] [B,,F,]6 | [B,,F,]2 [B,,F,] [B,,F,]2 [B,,B,] [_E,B,]6 | %6
 [_E,C]2 [F,D] [D,=B,]2 [E,C] [=E,^C]3 [E,CE]3 | %7
[M:13/8] [F,D]2 [F,B,F] [F,A,_E]3 [F,A,E][B,,F,]-[B,,F,]-[B,,F,]- [B,,F,]3 |] %8
V:3
 x12 | z6 [_EG]6 | x12 | x12 | x12 | x12 | x12 |[M:13/8] x13 |] %8

